X:1
T: Tim the Thatcher
C:
R:Jig
Q:180
K:Am
M:6/8
L:1/16
E2|:A2B2A2 c4A2|d4B2 G4B2|A2B2A2 c4A2|B4E2 G2A2B2|
A2B2A2 c4A2|d2B2d2 e4ef|g2a2g2 g2f2e2|1d2B2G2 A4E2:|2d2B2G2 A4d2|
|:e2f2e2 d4B2|e4A2 A2B2d2|e2f2e2 d4B2|d2B2G2 G2B2d2|
e2f2e2 d4B2|e4f2 g4a2|b2a2g2 g2f2e2|1d2B2G2 A4d2:|2d2B2G2 A4||
